Newaita-dark/actions/24/transform-move.svg

<svg height="24" viewBox="0 0 24 24" width="24" xmlns="http://www.w3.org/2000/svg"><g fill="#e0e0e0"><path d="m8.433594 17.042969h6.945312l-3.472656 4.960937zm0 0"/><path d="m8.433594 7.144531h6.945312l-3.472656-4.960937zm0 0"/><path d="m6.957031 8.621094v6.945312l-4.960937-3.472656zm0 0"/><path d="m16.855469 8.621094v6.945312l4.960937-3.472656zm0 0"/><path d="m11.90625 9.117188c1.644531 0 2.976562 1.332031 2.976562 2.976562s-1.332031 2.976562-2.976562 2.976562-2.976562-1.332031-2.976562-2.976562 1.332031-2.976562 2.976562-2.976562zm0 0"/></g></svg>

<?xml version="1.0" encoding="UTF-8"?>
<svg xmlns="http://www.w3.org/2000/svg" xmlns:xlink="http://www.w3.org/1999/xlink" width="24px" height="24px" viewBox="0 0 24 24" version="1.1">
<g id="surface1">
<path style=" stroke:none;fill-rule:nonzero;fill:rgb(87.843138%,87.843138%,87.843138%);fill-opacity:1;" d="M 8.433594 17.042969 L 15.378906 17.042969 L 11.90625 22.003906 Z M 8.433594 17.042969 "/>
<path style=" stroke:none;fill-rule:nonzero;fill:rgb(87.843138%,87.843138%,87.843138%);fill-opacity:1;" d="M 8.433594 7.144531 L 15.378906 7.144531 L 11.90625 2.183594 Z M 8.433594 7.144531 "/>
<path style=" stroke:none;fill-rule:nonzero;fill:rgb(87.843138%,87.843138%,87.843138%);fill-opacity:1;" d="M 6.957031 8.621094 L 6.957031 15.566406 L 1.996094 12.09375 Z M 6.957031 8.621094 "/>
<path style=" stroke:none;fill-rule:nonzero;fill:rgb(87.843138%,87.843138%,87.843138%);fill-opacity:1;" d="M 16.855469 8.621094 L 16.855469 15.566406 L 21.816406 12.09375 Z M 16.855469 8.621094 "/>
<path style=" stroke:none;fill-rule:nonzero;fill:rgb(87.843138%,87.843138%,87.843138%);fill-opacity:1;" d="M 11.90625 9.117188 C 13.550781 9.117188 14.882812 10.449219 14.882812 12.09375 C 14.882812 13.738281 13.550781 15.070312 11.90625 15.070312 C 10.261719 15.070312 8.929688 13.738281 8.929688 12.09375 C 8.929688 10.449219 10.261719 9.117188 11.90625 9.117188 Z M 11.90625 9.117188 "/>
</g>
</svg>
